X: 14181
T: Bonny Lad lay your Pipes down
%R: waltz, minuet
B: James Oswald "The Caledonian Pocket Companion" v.1 b.4 p.18 #1
S: https://ia800501.us.archive.org/18/items/caledonianpocket01rugg/caledonianpocket01rugg_bw.pdf
Z: 2020 John Chambers <jc:trillian.mit.edu>
N: Pickup rest added to strain 3, to fix the rhythms of repeats.
M: 3/4
L: 1/8
K: Dm
%%slurgraces 1
%%graceslurs 1
|: "_Slow"\
D4 E2 | F3 G A2 | A2 d2 ^c2 | d4 (=c/d/e) |\
f2 c2 (d/e/f) | (dc)(BA)(GF) | (FG) (TG3F/G/) |1 A>BAGFE :|2 A4 ||
|: (ef) |\
g4 (f/g/a) | g2 {g}fe{e}dc | {de}f3 d Tc>A | {A}G4 (AB) |\
c4 (d/e/f) | dcBAGF | (G/A/B) TE3 G | F4 (ef) |\
g4 (f/g/a) |
g2 {g}fe{e}dc | (fg) Tg3(f/g/) | a4 A2 |\
d3 f (Te>d) | {d}^c2 (BA) (d^c) | de Te3 d | d4 :: z2 |\
D4 E2 | F(E/D/) (AG)(FE) |
(FD) (fe)(d^c) | d3 e (fg) |\
a2 (gf)(ed) | (c>d) (c<A) (G>A) | F>G (TG3 F/G/) |1 (AF)(AF) (A/G/F/E/) :|2 A4 \
|: (e>f) |\
(g>f)(a>g) b>a |
(ag)(fe)(dc) | (f>g) (a/g/f/d/) (c/B/F/A/) | {A}G4 (F/G/A/d/) |\
c2 A(G/F/) (G/A/f/d/) | {d}c2 {c}BA{A}GF | (d/B/A/G/) {F}TE3 G | F4 (e/g/f/a/) |
g2 (f/e/d/c/) (af) | g2 (fe)(dc) | b2 (Tg3 f/g/) | {g}a4 (A/d/^c/e/) |\
d2- d/f/(e/g/ f/a/g/b/) | a4 b/(a/g/f/ e/d/^c/B/) | (A/d/g/e/) f4 (Te>d) | d4 :|


